X: 7068
T: Chris Droney's Favourite
R: reel
M: 4/4
K: Adorian
Bd|eA AAA a2 bg|agef gedc|BG dGeGdG|BGBd gedg|
eA AAA a2 bg|agef gabg|agab gedB|GABG A2:|
a2 ea agbg|agef gedc|BGdG eGdG|BGBd gedg|

